X: 2375
M: C
L: 1/8
K: G
uD2 |:\
[1 gfed cBAG | FGAB ADEF :|\
[2 gfgd ecAF | G2G2G2 |]
|: (Bc) |\
d2dB g2gd | e2ec a2ag |\
[1 f2(fe) dcBA | Bed^c d2 :|\
[2 fgfe dcBA | G2G2G2 |]


